X: 7264
T: Clare's
R: reel
M: 4/4
K: Bminor
GD|:F3B f2 f/e/d|GBdf edBd|e2 fe edBd|f2 fe ed BA/G/|
F4 f4|zBdf edBd|e2fe edB/c/d|1 aggf zgf/d/B/G/:|2 adfaa4||
b2 bD FBdb|fggg GBdf|eeed B/c/deg|f2fe edB/c/d|
b^abD FBdb|zggf GBdf|feed B/c/dez|FGcF Gc3||

